outputs/icons/navigation/arrow_back_round.svg

<svg xmlns="http://www.w3.org/2000/svg" width="1200" height="1200" fill="none"><g clip-path="url(#a)"><path fill="#000" d="M950 550H391.499L635.5 305.999c19.5-19.501 19.5-51.5 0-71-19.5-19.501-51-19.501-70.5 0L235.499 564.5c-19.5 19.5-19.5 51 0 70.5L565 964.5c19.5 19.5 51 19.5 70.5 0s19.5-51 0-70.5L391.499 650H950c27.5 0 50-22.5 50-50s-22.5-50-50-50"/></g><defs><clipPath id="a"><path fill="#fff" d="M0 0h1200v1200H0z"/></clipPath></defs></svg>

<svg width="1200" height="1200" viewBox="0 0 1200 1200" fill="none" xmlns="http://www.w3.org/2000/svg"><g clip-path="url(#clip0_225_2892)"><path d="M950 550H391.499L635.5 305.999C655 286.498 655 254.499 635.5 234.999C616 215.498 584.5 215.498 565 234.999L235.499 564.5C215.999 584 215.999 615.5 235.499 635L565 964.5C584.5 984 616 984 635.5 964.5C655 945 655 913.5 635.5 894L391.499 650H950C977.5 650 1000 627.5 1000 600C1000 572.5 977.5 550 950 550Z" fill="black"/></g><defs><clipPath id="clip0_225_2892"><path width="24" fill="white" d="M0 0H1200V1200H0V0z"/></clipPath></defs></svg>
